X: 20902
T: LUGTON BRIG
R: Waltz.
%R: waltz
B: W. Hamilton "Universal Tune-Book" Vol. 2 Glasgow 1846 p.90 #2
S: http://s3-eu-west-1.amazonaws.com/itma.dl.printmaterial/book_pdfs/hamiltonvol2web.pdf
Z: 2016 John Chambers <jc:trillian.mit.edu>
M: 3/4
L: 1/8
K: C
% - - - - - - - - - - - - - - - - - - - - - - - - -
G2 |!ff!\
c3 Gce | g3 ceg |\
c'2c'2c'2 | c'bagfe |\
[f2d2][f2d2][f2d2] | [e2c2] a>g f/e/d/c/ |\
[B2G2][B2G2][B2G2] | [c2E2]z2 :: g>g |\
BdgfdB | ceag^fg |\
g=fefdB | G4 ce |
gc'b_ba^g | =ba^gafd |\
c4 e>d | c2z2 :: g2 |\
e2c2G2 | E2C2g2 |\
f2d2G2 | F2D2 g>g |\
c'bagfe | agfedc |\
B2B>BB2 | c2z2 :|
% - - - - - - - - - - - - - - - - - - - - - - - - -

%%sep 1 1 500
%%sep 1 1 500

